!!!COM:	Bach, Johann Sebastian
!!!CDT:	1685/02/21/-1750/07/28/
!!!OTL@@DE:	O Mensch, schau Jesum Christum an
!!!SCT:	BWV 403
!!!PC#:	203
!!!AGN:	chorale
**kern	**kern	**kern	**kern
*ICvox	*ICvox	*ICvox	*ICvox
*Ibass	*Itenor	*Ialto	*Isoprn
*I"Bass	*I"Tenor	*I"Alto	*I"Soprano
*clefF4	*clefGv2	*clefG2	*clefG2
*k[b-]	*k[b-]	*k[b-]	*k[b-]
*g:dor	*g:dor	*g:dor	*g:dor
*M3/4	*M3/4	*M3/4	*M3/4
*MM100	*MM100	*MM100	*MM100
=1-	=1-	=1-	=1-
8GGL	8B-L	8dL	4g
8AAJ	8AJ	8cJ	.
4BB-	4.G	4d	4g
4GG	.	4B	4g
.	8F	.	.
=2	=2	=2	=2
8CL	8E-L	4c	2g
8DJ	8FJ	.	.
4E-	4G	4B	.
4C	4F#	8cL	4e-
.	.	8AJ	.
=3	=3	=3	=3
8BB-L	8GL	8dL	2d
8AAJ	8AJ	8cJ	.
4GG	4B-X	4d	.
4G	4B-	4d	4d
=4	=4	=4	=4
2F#;	2A;	2d;	2a;
[4G	4G	4d	4b-
=5	=5	=5	=5
4G]	2A	4c#	2a
8FnXL	.	4d	.
8E	.	.	.
8D	4A	4e	4g
8C#J	.	.	.
=6	=6	=6	=6
4D	4A	8eL	2f
.	.	8c#J	.
4GG	8B-L	4.d	.
.	8AJ	.	.
4AA	8GL	.	4e
.	8AJ	8c#J	.
=7	=7	=7	=7
2DD;	2F#;	2A;	2d;
8DL	4F#	4A	4d
8CnXJ	.	.	.
=8	=8	=8	=8
4BB-	8GL	2d	2g
.	8AJ	.	.
8GGL	2B-	.	.
8AA	.	.	.
8BB-	.	4d	4g
8CJ	.	.	.
=9	=9	=9	=9
4D	8AL	4d	2f#
.	8B-J	.	.
8AAL	4c	4e-	.
8BB-	.	.	.
8C	4A	4d	4f#
8AAJ	.	.	.
=10	=10	=10	=10
4BB-	4.G	4d	2g
8E-L	.	8cL	.
8DJ	8B-L	8B-J	.
4E-	8A	4c	4g
.	8GJ	.	.
=11	=11	=11	=11
2D;	2d;	2F#;	2a;
4DD	4d	4f#X	4a
=12	=12	=12	=12
8DL	2d	2f#	2a
8E-	.	.	.
8D	.	.	.
8C	.	.	.
8BB-	4d	4f#	4a
8AAJ	.	.	.
=13	=13	=13	=13
8GGL	2d	2g	2b-
8FF#	.	.	.
8GG	.	.	.
8AA	.	.	.
8BB-	4d	4g	4b-
8CJ	.	.	.
=14	=14	=14	=14
2.D;	2.d;	4g	2.a;
.	.	8f#L	.
.	.	8eJ	.
.	.	4f#;	.
=15	=15	=15	=15
8DL	4A	8f#L	2dd
8E	.	8gJ	.
8F#	2d	[2a	.
8E	.	.	.
8F#	.	.	4cc
8DJ	.	.	.
=16	=16	=16	=16
8GL	2d	4a]	2b-
8F#	.	.	.
8G	.	4g	.
8A	.	.	.
8G	[4d	4d	4a
8FJ	.	.	.
=17	=17	=17	=17
8E-L	4d]	4g	4g
8D	.	.	.
8E-	4c	2f	4a
8F	.	.	.
8E-	4d	.	4b
8DJ	.	.	.
=18	=18	=18	=18
2C;	2e-;	2g;	2cc;
4D	4d	4f#	4a
=19	=19	=19	=19
8GL	2d	4g	2b-
8GG	.	.	.
8AA	.	4fnX	.
8BB-	.	.	.
8C	4c	4e-	4a
8DJ	.	.	.
=20	=20	=20	=20
8E-L	8cL	4.e-	2g
8DJ	8B-J	.	.
4C	4.A	.	.
.	.	8e-	.
4D	.	4d	4f#
.	8c	.	.
=21	=21	=21	=21
2.GG;	2.B;	2.d;	2.g;
==	==	==	==
*-	*-	*-	*-
!!!hum2abc: -Q ''
!!!title: @{PC#}. @{OTL@@DE}
!!!YOR1: 371 vierstimmige Choralges&auml;nge von Johann Sebastian Bach, 
!!!YOR2: 4th ed. by Alfred D&ouml;rffel (Leipzig: Breitkopf und H&auml;rtel, 
!!!YOR2: c.1875). 178 pp. Plate "V.A.10".  reprint: J.S. Bach, 371 Four-Part 
!!!YOR4: Chorales (New York: Associated Music Publishers, Inc., c.1940).
!!!SMS: B&H, 4th ed, Alfred D&ouml;rffel, c.1875, plate V.A.10
!!!EED:  Craig Stuart Sapp
!!!EEV:  2009/05/22
